src/assets/icon/Clutch.svg

<svg width="48" height="25" viewBox="0 0 48 25" fill="none" xmlns="http://www.w3.org/2000/svg">
<g clip-path="url(#clip0_11566_4497)">
<mask id="mask0_11566_4497" style="mask-type:alpha" maskUnits="userSpaceOnUse" x="0" y="0" width="48" height="25">
<path fill-rule="evenodd" clip-rule="evenodd" d="M48 0.925781H0V16.5258H13.1999V24.9257H47.9999V16.5258H48V0.925781Z" fill="white"/>
</mask>
<g mask="url(#mask0_11566_4497)">
<path d="M12.4512 0.925781H14.654V14.5257H12.4512V0.925781Z" fill="#F3F3EF"/>
<path d="M22.315 10.2155C22.315 12.3226 20.5911 12.5141 20.0165 12.5141C18.6756 12.5141 18.4841 11.2691 18.4841 10.5986V5.33105H16.2812V10.5029C16.2812 11.7479 16.6643 12.8972 17.4305 13.5677C18.101 14.2381 18.9629 14.5254 20.0165 14.5254C20.7826 14.5254 21.7404 14.3338 22.315 13.7592V14.5254H24.5179V5.33105H22.315V10.2155Z" fill="#F3F3EF"/>
<path d="M28.8271 1.97949H26.6243V5.3316H24.9961V7.43863H26.6243V14.5259H28.8271V7.43863H30.4552V5.3316H28.8271V1.97949Z" fill="#F3F3EF"/>
<path d="M37.3525 11.7481C36.8736 12.1312 36.2032 12.4185 35.5328 12.4185C34.0004 12.4185 32.9469 11.2692 32.9469 9.73682C32.9469 8.20443 34.0004 7.15091 35.5328 7.15091C36.2032 7.15091 36.8736 7.34246 37.3525 7.82133L37.6398 8.10865L39.1722 6.67204L38.7891 6.38471C37.9272 5.61852 36.7779 5.13965 35.5328 5.13965C32.8511 5.13965 30.8398 7.15091 30.8398 9.83259C30.8398 12.5143 32.8511 14.5255 35.5328 14.5255C36.7779 14.5255 37.9272 14.0467 38.7891 13.2805L39.1722 12.9932L37.6398 11.4608L37.3525 11.7481Z" fill="#F3F3EF"/>
<path d="M46.9288 6.0976C46.2584 5.42718 45.588 5.13986 44.5345 5.13986C43.7683 5.13986 43.0021 5.3314 42.4274 5.90605V0.925781H40.2246V14.5257H42.4274V9.44971C42.4274 7.34267 43.864 7.15112 44.4387 7.15112C45.7795 7.15112 45.6838 8.39619 45.6838 9.06661V14.43H47.8866V9.16238C47.8866 7.91731 47.5992 6.76802 46.9288 6.0976Z" fill="#F3F3EF"/>
<path d="M35.4367 11.3656C36.283 11.3656 36.9691 10.6795 36.9691 9.83317C36.9691 8.98686 36.283 8.30078 35.4367 8.30078C34.5904 8.30078 33.9043 8.98686 33.9043 9.83317C33.9043 10.6795 34.5904 11.3656 35.4367 11.3656Z" fill="#EF4335"/>
<path d="M9.38589 11.1737C8.6197 11.9399 7.4704 12.4187 6.22534 12.4187C3.83098 12.4187 2.10704 10.5032 2.10704 7.91733C2.10704 5.33142 3.83098 3.41593 6.32111 3.41593C7.4704 3.41593 8.6197 3.8948 9.48167 4.75677L9.76899 5.0441L11.2056 3.60748L10.9183 3.32016C9.67322 2.07509 8.04505 1.40467 6.32111 1.40467C2.68168 1.3089 0 4.18213 0 7.91733C0 11.6525 2.68168 14.5258 6.22534 14.5258C7.94928 14.5258 9.67322 13.8553 10.8225 12.6103L11.1098 12.323L9.67322 10.8863L9.38589 11.1737Z" fill="#F3F3EF"/>
<path d="M16.4996 18.7256L17.1507 20.7294L19.2577 20.7294L17.5531 21.9679L18.2042 23.9717L16.4996 22.7333L14.795 23.9717L15.4461 21.9679L13.7415 20.7294L15.8485 20.7294L16.4996 18.7256Z" fill="#EF4335"/>
<path d="M23.5992 18.7256L24.2503 20.7294L26.3573 20.7294L24.6527 21.9679L25.3038 23.9717L23.5992 22.7333L21.8946 23.9717L22.5457 21.9679L20.8412 20.7294L22.9481 20.7294L23.5992 18.7256Z" fill="#EF4335"/>
<path d="M30.7008 18.7256L31.3519 20.7294L33.4588 20.7294L31.7543 21.9679L32.4054 23.9717L30.7008 22.7333L28.9962 23.9717L29.6473 21.9679L27.9427 20.7294L30.0497 20.7294L30.7008 18.7256Z" fill="#EF4335"/>
<path d="M37.8004 18.7256L38.4515 20.7294L40.5585 20.7294L38.8539 21.9679L39.505 23.9717L37.8004 22.7333L36.0958 23.9717L36.7469 21.9679L35.0423 20.7294L37.1493 20.7294L37.8004 18.7256Z" fill="#EF4335"/>
<path d="M44.9 18.7256L45.5511 20.7294L47.6581 20.7294L45.9535 21.9679L46.6046 23.9717L44.9 22.7333L43.1954 23.9717L43.8465 21.9679L42.1419 20.7294L44.2489 20.7294L44.9 18.7256Z" fill="#EF4335"/>
</g>
<path d="M0.765625 22.0254L1.50391 21.9629C1.55859 22.3223 1.6849 22.5931 1.88281 22.7754C2.08333 22.9551 2.32422 23.0449 2.60547 23.0449C2.94401 23.0449 3.23047 22.9173 3.46484 22.6621C3.69922 22.4069 3.81641 22.0684 3.81641 21.6465C3.81641 21.2454 3.70312 20.929 3.47656 20.6973C3.2526 20.4655 2.95833 20.3496 2.59375 20.3496C2.36719 20.3496 2.16276 20.4017 1.98047 20.5059C1.79818 20.6074 1.65495 20.7402 1.55078 20.9043L0.890625 20.8184L1.44531 17.877H4.29297V18.5488H2.00781L1.69922 20.0879C2.04297 19.8483 2.40365 19.7285 2.78125 19.7285C3.28125 19.7285 3.70312 19.9017 4.04688 20.248C4.39062 20.5944 4.5625 21.0397 4.5625 21.584C4.5625 22.1022 4.41146 22.5501 4.10938 22.9277C3.74219 23.3913 3.24089 23.623 2.60547 23.623C2.08464 23.623 1.65885 23.4772 1.32812 23.1855C1 22.8939 0.8125 22.5072 0.765625 22.0254ZM5.59766 23.5254V22.7246H6.39844V23.5254C6.39844 23.8197 6.34635 24.0566 6.24219 24.2363C6.13802 24.4186 5.97266 24.5592 5.74609 24.6582L5.55078 24.3574C5.69922 24.2923 5.80859 24.196 5.87891 24.0684C5.94922 23.9434 5.98828 23.7624 5.99609 23.5254H5.59766ZM7.44531 20.7012C7.44531 20.0241 7.51432 19.4798 7.65234 19.0684C7.79297 18.6543 8 18.3353 8.27344 18.1113C8.54948 17.8874 8.89583 17.7754 9.3125 17.7754C9.61979 17.7754 9.88932 17.8379 10.1211 17.9629C10.3529 18.0853 10.5443 18.2637 10.6953 18.498C10.8464 18.7298 10.9648 19.0137 11.0508 19.3496C11.1367 19.6829 11.1797 20.1335 11.1797 20.7012C11.1797 21.373 11.1107 21.916 10.9727 22.3301C10.8346 22.7415 10.6276 23.0605 10.3516 23.2871C10.0781 23.5111 9.73177 23.623 9.3125 23.623C8.76042 23.623 8.32682 23.4251 8.01172 23.0293C7.63411 22.5527 7.44531 21.7767 7.44531 20.7012ZM8.16797 20.7012C8.16797 21.6413 8.27734 22.2676 8.49609 22.5801C8.71745 22.89 8.98958 23.0449 9.3125 23.0449C9.63542 23.0449 9.90625 22.8887 10.125 22.5762C10.3464 22.2637 10.457 21.6387 10.457 20.7012C10.457 19.7585 10.3464 19.1322 10.125 18.8223C9.90625 18.5124 9.63281 18.3574 9.30469 18.3574C8.98177 18.3574 8.72396 18.4941 8.53125 18.7676C8.28906 19.1165 8.16797 19.7611 8.16797 20.7012Z" fill="#F3F3EF"/>
</g>
<defs>
<clipPath id="clip0_11566_4497">
<rect width="48" height="24" fill="white" transform="translate(0 0.925781)"/>
</clipPath>
</defs>
</svg>

<svg width="48" height="25" fill="none" xmlns="http://www.w3.org/2000/svg"><g clip-path="url(#a)"><mask id="b" style="mask-type:alpha" maskUnits="userSpaceOnUse" x="0" y="0" width="48" height="25"><path fill-rule="evenodd" clip-rule="evenodd" d="M48 .926H0v15.6h13.2v8.4H48v-24Z" fill="#fff"/></mask><g mask="url(#b)"><path d="M12.451.926h2.203v13.6h-2.203V.926ZM22.315 10.216c0 2.107-1.724 2.298-2.299 2.298-1.34 0-1.532-1.245-1.532-1.915V5.33h-2.203v5.172c0 1.245.383 2.394 1.15 3.065.67.67 1.532.957 2.585.957.767 0 1.724-.191 2.299-.766v.766h2.203V5.331h-2.203v4.885ZM28.827 1.98h-2.203v3.352h-1.628v2.107h1.628v7.087h2.203V7.439h1.628V5.332h-1.628V1.979ZM37.352 11.748c-.478.383-1.149.67-1.82.67-1.532 0-2.585-1.149-2.585-2.681 0-1.533 1.053-2.586 2.586-2.586.67 0 1.34.191 1.82.67l.287.288 1.532-1.437-.383-.287a4.91 4.91 0 0 0-3.256-1.245c-2.682 0-4.693 2.01-4.693 4.693 0 2.681 2.011 4.692 4.693 4.692a4.91 4.91 0 0 0 3.256-1.245l.383-.287-1.532-1.532-.288.287ZM46.929 6.098c-.67-.67-1.341-.958-2.395-.958-.766 0-1.532.191-2.107.766V.926h-2.202v13.6h2.202V9.45c0-2.107 1.437-2.299 2.012-2.299 1.34 0 1.245 1.245 1.245 1.916v5.363h2.203V9.162c0-1.245-.288-2.394-.958-3.064Z" fill="#F3F3EF"/><path d="M35.437 11.366a1.532 1.532 0 1 0 0-3.065 1.532 1.532 0 0 0 0 3.065Z" fill="#EF4335"/><path d="M9.386 11.174c-.766.766-1.916 1.245-3.16 1.245-2.395 0-4.119-1.916-4.119-4.502s1.724-4.501 4.214-4.501c1.15 0 2.299.479 3.16 1.34l.288.288 1.437-1.437-.288-.287a6.45 6.45 0 0 0-4.597-1.915C2.681 1.309 0 4.182 0 7.917c0 3.736 2.682 6.609 6.225 6.609 1.724 0 3.448-.67 4.598-1.916l.287-.287-1.437-1.437-.287.288Z" fill="#F3F3EF"/><path d="m16.5 18.726.65 2.003h2.108l-1.705 1.239.651 2.004-1.704-1.239-1.705 1.239.651-2.004-1.704-1.239h2.106l.652-2.003ZM23.6 18.726l.65 2.003h2.107l-1.704 1.239.65 2.004-1.704-1.239-1.704 1.239.65-2.004-1.704-1.239h2.107l.651-2.003ZM30.7 18.726l.652 2.003h2.107l-1.705 1.239.651 2.004-1.704-1.239-1.705 1.239.651-2.004-1.704-1.239h2.107l.65-2.003ZM37.8 18.726l.652 2.003h2.107l-1.705 1.239.651 2.004-1.705-1.239-1.704 1.239.65-2.004-1.704-1.239h2.107l.651-2.003ZM44.9 18.726l.651 2.003h2.107l-1.705 1.239.652 2.004-1.705-1.239-1.705 1.239.651-2.004-1.704-1.239h2.107l.651-2.003Z" fill="#EF4335"/></g><path d="m.766 22.025.738-.062c.055.36.18.63.379.812.2.18.441.27.722.27.339 0 .625-.128.86-.383.234-.255.351-.594.351-1.015 0-.402-.113-.718-.34-.95-.223-.232-.518-.347-.882-.347-.227 0-.431.052-.614.156a1.174 1.174 0 0 0-.43.398l-.66-.086.555-2.941h2.848v.672H2.008l-.309 1.539c.344-.24.705-.36 1.082-.36.5 0 .922.174 1.266.52.344.346.516.792.516 1.336 0 .518-.152.966-.454 1.344-.367.463-.868.695-1.504.695-.52 0-.946-.146-1.277-.438-.328-.291-.516-.678-.562-1.16Zm4.832 1.5v-.8h.8v.8c0 .295-.052.532-.156.711-.104.183-.27.323-.496.422l-.195-.3a.665.665 0 0 0 .328-.29c.07-.125.11-.306.117-.543h-.398Zm1.847-2.824c0-.677.07-1.221.207-1.633.141-.414.348-.733.621-.957.276-.224.623-.336 1.04-.336.307 0 .576.063.808.188.232.122.423.3.574.535.151.232.27.516.356.852.086.333.129.784.129 1.351 0 .672-.07 1.215-.207 1.63-.138.41-.345.73-.621.956-.274.224-.62.336-1.04.336-.552 0-.985-.198-1.3-.594-.378-.476-.567-1.252-.567-2.328Zm.723 0c0 .94.11 1.567.328 1.88.221.309.494.464.816.464.323 0 .594-.156.813-.469.221-.312.332-.937.332-1.875 0-.942-.11-1.569-.332-1.879-.219-.31-.492-.465-.82-.465a.9.9 0 0 0-.774.41c-.242.35-.363.994-.363 1.934Z" fill="#F3F3EF"/></g><defs><clipPath id="a"><path fill="#fff" transform="translate(0 .926)" d="M0 0h48v24H0z"/></clipPath></defs></svg>
